X: 33
M: 6/8
L: 1/8
K: D
f2d A2d | fef a^/gf | e2c A2c | ece a2^/g |
f2d A2d | fef a^/gf | ef^/g a2c | d2z d"D.C."cB |]
P: VAR:
"a."a |] y6 y6 y6 y6 y6 y6 y6 y6


